X:29
T:Corporal Casay
N:page 19 on manuscript
M:6/8
L:1/8
K:F
c/b/ | AFF CFF | AFF cBA | dGG DGG | BGG {e}dcB | AFF CFF | AFF Acc | d>ef cB/A/G/F/ | cFF A>Bc |
Hf6 | AFF CFF | AFF cBA | dGG DGG | BGG dHcB | fdd ecc | dBB f2 c | Ha3 agf | fed cB/A/G/F/ | cFF A2 c ||

